X: 20
T:Maid of the Mill
T:Fieldtown Style Corner Dance
M:6/8
L:1/8
Q:105
S:Adapted from Ilmington by Mike Garland/David Tydeman
K:D
A|AAd dcd|efg a2 A|B2B =cBA| d3 d2||: fg|a2a agf| gfg g2f| efg afe|d3 c2
 A| AAd dcd|efg a2 A|B2B =cBA|d3 d2||:
